X: 3
T: The Fair Wind
R: reel
M: 4/4
L: 1/8
K: Gmaj
~G3F ~G3A|BAGA BAAB|~G3E ~G3A|1BAGE EDDE:|2BAGE EDDc||BcdB ~G3A|BcdB cAAc|BcdB ~G3A|1BAGE EDDc:|2BAGE EDDE||GE~E2 ~c3A|BAGA BAAB|GE~E2 ~c3A|1BAGE EDDA:|2BAGE EDDE||


Tune 936	Setting 21842

